X:1
T:Trip to Paris [3]
M:6/8
L:1/8
R:Jig
B:Köhler’s Violin Repository vol. 2 (1881-1885, p. 128)
Z:AK/Fiddler’s Companion
K:G
(d/c/)|B3 GAB|A3 EFG|FEF DEF|GAB ABc|
BAB GAB|A3 EFG|FGA DEF|G3G3:|
|:B|G2g- gdc|Bcd GAB|A2a- abg|fga def|
G2g- gdc|Bcd efg|dcB AGF|G3 G3:|
G2g dcB|Bcd GAB|A2a- abg|fga def|
gab afd|efg fdB|edc BcA|G3 G3!D.C!||

